!!!COS: Isaac
!!!COA: Gaspar van Weerbeke
!!!CDT: ~1450-~1517
!!!OTL: La stangetta
!!!AGN: Song
!!!SCT: Gas0506
!!!SCA: Gas0506
!!!voices: 3
**kern	**kern	**kern
*part3	*part2	*part1
*staff3	*staff2	*staff1
*I"Bassus	*I"Tenor	*I"Superius
*I'B	*I'T	*I'S
*clefF4	*clefGv2	*clefG2
*k[b-]	*k[b-]	*k[b-]
*d:	*d:	*d:
*M2/2	*M2/2	*M2/2
*met(C|) 	*met(C|) 	*met(C|) 
=1	=1	=1
1G	1r	1r~
=2	=2	=2
1A	1r	1r
=3	=3	=3
4B-	1r	1g
2B-	.	.
8AL	.	.
8GJ	.	.
=4	=4	=4
1F	1r	1a
=5	=5	=5
4G	1G	4b-
2G	.	2b-
8FL	.	8aL
8EJ	.	8gJ
=6	=6	=6
1D	1A	1f
=7	=7	=7
4BB-	4B-	4g
2GG	2B-	2g
4AA	8AL	8fL
.	8GJ	8eJ
!!LO:LB:g=original
=8	=8	=8
4.BB-	1F	4d
.	.	4.dd
8C	.	.
2D	.	.
.	.	8ccL
.	.	8b-
.	.	8aJ
=9	=9	=9
4BB-	4G	4b-
4.GG	2G	2b-
8AAL	.	.
8BB-	8FL	8aL
8CJ	8EJ	8gJ
=10	=10	=10
8DL	2D	2f
8E	.	.
8F	.	.
8GJ	.	.
4A	4r	2r
4D	[4d'	.
=11	=11	=11
2F	8dL]	2f
.	8c	.
.	8B-	.
.	8AJ	.
4E-	4B-	[2g
[4G	[4B-	.
=12	=12	=12
4G]	4B-]	2g]
8FL	8AL	.
8EJ	8GJ	.
*	*lig	*
4D	2F	[2a'
[4F'	.	.
=13	=13	=13
8FL]	2f	4a]
8E	.	.
8D	.	4.dd
8CJ	.	.
*	*Xlig	*
4D	2d	.
.	.	8ccL
4G	.	8b-
.	.	8aJ
!!LO:LB:g=original
=14	=14	=14
4E	4e	4g
4A	4c	2a
4F	4d	.
4G	4B-	[4g
=15	=15	=15
2D	2A	4g]
.	.	4f#
4r	2G	2g
4GG	.	.
=16	=16	=16
4.GG	4r	1r
.	4.G	.
8AA	.	.
4BB-	.	.
.	8A	.
4GG	4B-	.
=17	=17	=17
4.BB-	4G	1r
.	4.B-	.
8C	.	.
4D	.	.
.	8c	.
4BB-	[4d'	.
=18	=18	=18
4.GG	8dL]	1r
.	8c	.
.	8B-	.
8AA	8AJ	.
4BB-	4G	.
*	*lig	*
4C	[4A	.
=19	=19	=19
4D	4A]	1r
4GG	2G	.
2AA	.	.
*	*Xlig	*
.	4F#	.
!!LO:LB:g=original
=20	=20	=20
4GG	4.G	4r
4G	.	4.g
.	8A	.
4E-	4B-	.
.	.	8a
[4G	4G	4b-
=21	=21	=21
4G]	4.B-	4g
8FL	.	4.b-
8E-J	8c	.
2D	4d	.
.	.	8cc
.	4B-	[4dd'
=22	=22	=22
4BB-	4.G	8ddL]
.	.	8cc
4C	.	8b-
.	8A	8aJ
4BB-	4B-	4g
4AA	4c	[4a
=23	=23	=23
4D	4d	4a]
4E-	4G	2g
*	*lig	*
2D	2A	.
.	.	4f#
=24	=24	=24
2E-	2G	2g
*	*Xlig	*
4r	2r	4dd
[4D'	.	[4dd
=25	=25	=25
8DL]	1r	4dd]
8C	.	.
8BB-	.	8ccL
8AAJ	.	8b-J
4BB-	.	4dd
[4E-'	.	[4cc'
!!LO:PB:g=original
=26	=26	=26
8E-L]	1r	8ccL]
8DJ	.	8b-J
4BB-	.	2b-
2C	.	.
.	.	4a
=27	=27	=27
2BB-	2r	2b-
4GG	4d	2r
[4G'	[4d	.
=28	=28	=28
8GL]	4d]	1r
8F	.	.
8D	8cL	.
8E-J	8B-J	.
4F	4d	.
[4E-'	[4c	.
=29	=29	=29
8E-L]	4c]	1r
8D	.	.
8C	2B-	.
8BB-J	.	.
2C	.	.
.	4A	.
=30	=30	=30
4BB-	1B-	4b-
2GG	.	2dd
4G	.	8ccL
.	.	8b-J
=31	=31	=31
8FL	2c	8aL
8E	.	8g
8D	.	8f
8CJ	.	8eJ
4BB-	4d	4d
[4AA	8cL	[4a
.	8B-J	.
!!LO:LB:g=original
=32	=32	=32
4AA]	4A	4a]
4BB-	2d	8gL
.	.	8fJ
2AA	.	2e
.	4c#	.
=33	=33	=33
4D	2d	4f
4.G	.	4.b-
*	*lig	*
.	2B-	.
8FL	.	8aL
8E	.	8g
8DJ	.	8fJ
=34	=34	=34
4C	2c	4e
4.F	.	4.a
*	*Xlig	*
*	*lig	*
.	2A	.
8EL	.	8gL
8D	.	8f
8CJ	.	8eJ
=35	=35	=35
4BB-	2B-	4d
4.GG	.	2g
*	*Xlig	*
.	2G	.
8AAL	.	.
8BB-	.	8fL
8GGJ	.	8eJ
=36	=36	=36
4D	1A	4f
4E-	.	2g
2D	.	.
.	.	4f#
!!LO:LB:g=original
=37	=37	=37
4.E-	[1G	4.g
8D	.	8a
4C	.	8b-L
.	.	8ccJ
8BB-L	.	[4b-'
8AAJ	.	.
=38	=38	=38
4BB-	1G]	8b-L]
.	.	8aJ
4.GG	.	2b-
8AAL	.	.
8BB-	.	8aL
8GGJ	.	8gJ
=39	=39	=39
4.D	[1A	4.f
8E	.	8g
8FL	.	8aL
8DJ	.	8b-J
4A	.	[4a'
=40	=40	=40
4D	1A]	8aL]
.	.	8gJ
4.F	.	4.a
8EL	.	8gL
8D	.	8f
8CJ	.	8eJ
=41	=41	=41
4.BB-	[1B-	4.d
8C	.	8e
4D	.	4f
4E-	.	4g
!!LO:LB:g=original
=42	=42	=42
4D	1B-]	4f
2E-	.	4.g
.	.	8fL
4D	.	8e
.	.	8dJ
=43	=43	=43
4.C	[1c	4.e
8D	.	8f
4E	.	4g
4F	.	4a
=44	=44	=44
4E	1c]	4g
2F	.	4.a
.	.	8gL
4E	.	8f
.	.	8eJ
=45	=45	=45
4.D	[1d	4.f
8E	.	8g
4F	.	4a
4G	.	4b-
=46	=46	=46
4F	1d]	4a
2BB-	.	4.b-
.	.	8aL
4AA	.	8b-
.	.	8ccJ
=47	=47	=47
4GG	1G	4dd
4.BB-	.	4.d
8CL	.	8eL
8D	.	8f
8CJ	.	8eJ
!!LO:PB:g=original
=48	=48	=48
4AA	1A	4c
4.C	.	4.e
8DL	.	8fL
8E-	.	8g
8DJ	.	8fJ
=49	=49	=49
4BB-	1B-	4d
4.D	.	4.f
8E-jL	.	8gL
8F	.	8a
8E-jJ	.	8gJ
=50	=50	=50
4C	1c	4e
4.E	.	4.g
8FL	.	8aL
8G	.	8b-
8FJ	.	8aJ
=51	=51	=51
4.D	1d	4.f
8E	.	8g
4F	.	4a
[4G	.	[4b-
=52	=52	=52
*	*lig	*
4G]	2G	4b-]
8FL	.	8aL
8EJ	.	8gJ
2D	2A	2f
*	*Xlig	*
=53	=53	=53
*	*lig	*
4BB-	2B-	4d
2E-	.	2g
.	2c	.
8DL	.	8fL
8CJ	.	8eJ
*	*Xlig	*
!!LO:LB:g=original
=54	=54	=54
4BB-	2d	4d
2E-	.	2g
.	4G	.
8DL	4A	8fL
8CJ	.	8eJ
=55	=55	=55
4BB-	4B-	4d
4AA	4c	4e
2BB-	4d	4d
.	[4G'	[4dd
=56	=56	=56
4GG	8GL]	4dd]
.	8A	.
4G	8B-	8ccL
.	8cJ	8b-J
4F	2d	4a
4G	.	4b-
=57	=57	=57
4A	4c	4a
4D	2d	4.b-
4F	.	.
.	.	8a
4G	8cL	[4g
.	8B-J	.
=58	=58	=58
2D	2A	4g]
.	.	4f#
2GG	2G	2g
==	==	==
*-	*-	*-
!!!system-decoration: [(s1,s2,s3)]
!!!RDF**kern: j = editorial accidental, optional, paren up
!!!RDF**kern: i = editorial accidental
!!!RDF**kern: l = terminal long
!!!PTL: Gaspar van Weerbeke: Collected Works. V. Settings of Liturgical Texts, Songs, and Instrumental Works
!!!PPR: American Institute of Musicology
!!!PC#: Corpus Mensurabilis Musicae 106/V
!!!PDT: 2020
!!!PED: Kolb, Paul
!!!YEC: Copyright 2018, Kolb, Paul
!!!YEM: CC-BY-NC 4.0 (https://creativecommons.org/licenses/by-nc/4.0/legalcode)
!!!EED: Zybina, Karina
!!!EEV: 2021/08/25
